dist/img/paid_FILL1_wght700_GRAD200_opsz48 1.svg

<svg width="25" height="25" viewBox="0 0 25 25" fill="none" xmlns="http://www.w3.org/2000/svg">
<g opacity="0.5">
<path d="M11.6145 19.9219H13.3072V18.6979C14.3142 18.6111 15.1258 18.3029 15.7421 17.7734C16.3584 17.2439 16.6666 16.493 16.6666 15.5208C16.6666 14.6354 16.4018 13.8889 15.8723 13.2812C15.3428 12.6736 14.4617 12.1267 13.2291 11.6406C12.2569 11.2239 11.5581 10.8507 11.1327 10.5208C10.7074 10.191 10.4947 9.75693 10.4947 9.21874C10.4947 8.78471 10.6683 8.42447 11.0155 8.13801C11.3628 7.85155 11.8402 7.70832 12.4478 7.70832C12.986 7.70832 13.4418 7.82551 13.815 8.05989C14.1883 8.29426 14.5051 8.68055 14.7655 9.21874L16.2499 8.54166C15.9027 7.79513 15.499 7.26127 15.039 6.94009C14.5789 6.61891 14.019 6.39756 13.3593 6.27603V5.10416H11.6666V6.27603C10.7291 6.44964 10.0173 6.80989 9.53117 7.35676C9.04506 7.90364 8.802 8.55902 8.802 9.32291C8.802 10.2257 9.08846 10.9505 9.66138 11.4974C10.2343 12.0443 11.1197 12.5434 12.3176 12.9948C13.3072 13.4114 13.9973 13.8021 14.3879 14.1667C14.7786 14.5312 14.9739 14.9826 14.9739 15.5208C14.9739 16.0417 14.7655 16.4583 14.3489 16.7708C13.9322 17.0833 13.368 17.2396 12.6562 17.2396C11.9964 17.2396 11.4148 17.0443 10.9114 16.6536C10.4079 16.263 10.0607 15.7292 9.86971 15.0521L8.30721 15.5729C8.65443 16.4583 9.1145 17.1441 9.68742 17.6302C10.2603 18.1163 10.9027 18.4462 11.6145 18.6198V19.9219ZM12.4999 23.4635C10.9895 23.4635 9.56589 23.1814 8.22909 22.6172C6.89228 22.0529 5.72474 21.2717 4.72648 20.2734C3.72822 19.2752 2.94697 18.1076 2.38273 16.7708C1.81849 15.434 1.53638 14.0104 1.53638 12.5C1.53638 10.9896 1.81849 9.56596 2.38273 8.22916C2.94697 6.89235 3.72822 5.72482 4.72648 4.72655C5.72474 3.72829 6.89228 2.9427 8.22909 2.36978C9.56589 1.79686 10.9808 1.51041 12.4739 1.51041C14.0017 1.51041 15.4383 1.79686 16.7838 2.36978C18.1293 2.9427 19.2968 3.72395 20.2864 4.71353C21.276 5.70311 22.0572 6.87065 22.6301 8.21614C23.203 9.56162 23.4895 10.9983 23.4895 12.526C23.4895 14.0191 23.203 15.434 22.6301 16.7708C22.0572 18.1076 21.2716 19.2752 20.2734 20.2734C19.2751 21.2717 18.1076 22.0529 16.7708 22.6172C15.4339 23.1814 14.0103 23.4635 12.4999 23.4635Z" fill="#00E0FF"/>
</g>
</svg>

<svg width="25" height="25" fill="none" xmlns="http://www.w3.org/2000/svg"><path d="M11.614 19.922h1.693v-1.224c1.007-.087 1.819-.395 2.435-.925.616-.53.925-1.28.925-2.252 0-.886-.265-1.632-.795-2.24-.53-.607-1.41-1.154-2.643-1.64-.972-.417-1.67-.79-2.096-1.12a1.569 1.569 0 0 1-.638-1.302c0-.434.173-.795.52-1.081.348-.286.825-.43 1.433-.43.538 0 .994.118 1.367.352.373.234.69.62.95 1.159l1.485-.677c-.347-.747-.751-1.28-1.211-1.602-.46-.321-1.02-.542-1.68-.664V5.104h-1.692v1.172c-.938.174-1.65.534-2.136 1.08-.486.548-.729 1.203-.729 1.967 0 .903.286 1.627.86 2.174.572.547 1.458 1.046 2.656 1.498.99.416 1.68.807 2.07 1.172.39.364.586.816.586 1.354 0 .52-.209.937-.625 1.25-.417.312-.981.469-1.693.469-.66 0-1.241-.196-1.745-.586-.503-.391-.85-.925-1.041-1.602l-1.563.52c.347.886.807 1.572 1.38 2.058a4.645 4.645 0 0 0 1.928.99v1.302Zm.886 3.541a10.87 10.87 0 0 1-4.27-.846 10.887 10.887 0 0 1-3.504-2.344 10.886 10.886 0 0 1-2.343-3.502 10.87 10.87 0 0 1-.847-4.271c0-1.51.282-2.934.847-4.27a10.887 10.887 0 0 1 2.343-3.503A11.064 11.064 0 0 1 8.23 2.37a10.662 10.662 0 0 1 4.245-.86c1.528 0 2.964.287 4.31.86a10.98 10.98 0 0 1 3.502 2.344c.99.99 1.771 2.157 2.344 3.502.573 1.346.86 2.782.86 4.31 0 1.493-.287 2.908-.86 4.245a11.064 11.064 0 0 1-2.357 3.502 10.888 10.888 0 0 1-3.502 2.344 10.87 10.87 0 0 1-4.271.846Z" fill="#00E0FF" opacity=".5"/></svg>
